src/assets/PROFILE_T.svg

<svg width="241" height="64" viewBox="0 0 241 64" fill="none" xmlns="http://www.w3.org/2000/svg">
<path d="M197.803 60.4856L209.332 17.4594L240.7 20.2037L238.415 28.7348L216.865 26.8494L214.529 35.566L232.891 37.1724L230.688 45.3944L212.326 43.7879L209.908 52.8135L231.458 54.6989L229.172 63.2299L197.803 60.4856Z" fill="#FBEDFF"/>
<path d="M163.059 57.4458L174.588 14.4196L184.406 15.2786L175.163 49.7738L196.713 51.6591L194.427 60.1902L163.059 57.4458Z" fill="#FBEDFF"/>
<path d="M147.059 56.046L158.588 13.0198L168.407 13.8789L156.878 56.9051L147.059 56.046Z" fill="#FBEDFF"/>
<path d="M113.306 53.093L124.835 10.0668L156.203 12.8112L153.917 21.3423L132.368 19.4569L129.933 28.5443L148.295 30.1508L146.092 38.3727L127.73 36.7663L123.125 53.952L113.306 53.093Z" fill="#FBEDFF"/>
<path d="M78.6282 33.2297L81.3448 23.0913C83.7301 14.1894 91.4443 6.82918 102.984 7.83879C113.695 8.77589 118.485 16.4708 115.901 26.1146L113.184 36.253C110.435 46.515 101.793 52.4654 91.2732 51.545C79.7333 50.5354 76.2264 42.1935 78.6282 33.2297ZM102.992 36.0572L106.123 24.3734C107.133 20.6024 105.253 17.148 100.535 16.7352C95.6259 16.3057 92.4031 19.5668 91.4589 23.0905L88.3283 34.7743C87.3344 38.4834 88.6855 42.208 93.5947 42.6375C98.3127 43.0502 101.899 40.1373 102.992 36.0572Z" fill="#FBEDFF"/>
<path d="M37.0302 46.4197L48.5591 3.39354L68.1961 5.11155C75.9744 5.79207 81.2989 11.003 79.0793 19.2868C77.7045 24.4178 73.7065 28.6234 67.7547 30.3803L71.3312 49.4207L60.2376 48.4501L57.6802 31.2072L51.3046 30.6494L46.8487 47.2788L37.0302 46.4197ZM53.5905 22.1183L61.6875 22.8267C65.2579 23.1391 68.0004 21.6708 68.8617 18.4562C69.7231 15.2416 67.8394 13.7481 64.5241 13.4581L56.1083 12.7218L53.5905 22.1183Z" fill="#FBEDFF"/>
<path d="M0.728731 43.2438L12.2576 0.217583L30.5557 1.81846C39.9279 2.63842 44.6877 8.49594 42.4018 17.027C40.3147 24.8162 31.9051 29.9012 23.4255 29.1593L14.7546 28.4007L10.5472 44.1028L0.728731 43.2438ZM17.0405 19.8696L25.2651 20.5892C28.5166 20.8737 31.6607 19.1242 32.5055 15.9714C33.4331 12.5095 31.6489 10.6451 27.7597 10.3049L19.7902 9.60765L17.0405 19.8696Z" fill="#D3A7E0"/>
</svg>

<svg width="241" height="64" fill="none" xmlns="http://www.w3.org/2000/svg"><path d="m197.803 60.486 11.529-43.027 31.368 2.745-2.285 8.53-21.55-1.885-2.336 8.717 18.362 1.606-2.203 8.222-18.362-1.606-2.418 9.026 21.55 1.885-2.286 8.53-31.369-2.743zM163.059 57.446l11.529-43.026 9.818.859-9.243 34.495 21.55 1.885-2.286 8.531-31.368-2.744zM147.059 56.046l11.529-43.026 9.819.859-11.529 43.026-9.819-.859zM113.306 53.093l11.529-43.026 31.368 2.744-2.286 8.531-21.549-1.885-2.435 9.087 18.362 1.607-2.203 8.222-18.362-1.607-4.605 17.186-9.819-.859zM78.628 33.23l2.717-10.139C83.73 14.19 91.445 6.83 102.984 7.84c10.711.937 15.501 8.632 12.917 18.276l-2.717 10.138c-2.749 10.262-11.391 16.212-21.91 15.292-11.54-1.01-15.048-9.352-12.646-18.315zm24.364 2.827 3.131-11.684c1.01-3.77-.87-7.225-5.588-7.638-4.91-.43-8.132 2.832-9.076 6.355l-3.13 11.684c-.995 3.71.357 7.434 5.266 7.864 4.718.412 8.304-2.5 9.397-6.58zM37.03 46.42 48.56 3.394l19.636 1.718c7.778.68 13.103 5.891 10.883 14.175-1.374 5.13-5.372 9.336-11.324 11.093l3.576 19.04-11.093-.97-2.558-17.243-6.375-.558-4.456 16.63-9.819-.86zm16.56-24.302 8.097.709c3.57.312 6.313-1.156 7.175-4.37.861-3.215-1.023-4.709-4.338-4.999l-8.416-.736-2.517 9.396z" fill="#FBEDFF"/><path d="M.729 43.244 12.258.218l18.298 1.6c9.372.82 14.132 6.678 11.846 15.209-2.087 7.79-10.497 12.874-18.977 12.132l-8.67-.758-4.208 15.702-9.818-.86zM17.04 19.87l8.224.72c3.252.284 6.396-1.466 7.24-4.619.928-3.462-.856-5.326-4.745-5.666l-7.97-.697-2.75 10.262z" fill="#D3A7E0"/></svg>
